X:1
T:Secret Prayer
T:Secret Prayer
T:Charles Hutchinson Gabriel
T:Charles Hutchinson Gabriel, 1922
T:Public Domain Courtesy of the Cyber Hymnal™
C:Charles Hutchinson Gabriel
Z:Public Domain
Z:Courtesy of the Cyber Hymnal™
%%score ( 1 2 ) ( 3 4 )
L:1/8
Q:1/4=105
M:3/4
K:Bb
V:1 treble 
V:2 treble 
V:3 bass 
V:4 bass 
V:1
"^Male voices sing the melody" [Fd]4 [Ec]>[DB] x/ | [DF]6 | ([EG]3 [FA]) [GB]>[_Gc] x/ | [Fd]6 | %4
w: 1.~Sweet se- cret|prayer,|com- * fort di-|vine,|
w: 2.~Sweet se- cret|prayer,|com- * fort di-|vine,|
w: 3.~Sweet se- cret|prayer,|com- * fort di-|vine,|
 [Ec]4 (3([Ec][DB])[CA] | [DB]4 [Fd]2 | (c3 G) [_EA][EB] | ([Ec]4 [=E^c]2) | [Fd]4 [Ec]>[DB] x/ | %9
w: There, O * my|Lord, I|know * Thou art|mine; *|Great Mas- ter,|
w: There do * Thine|arms, Lord,|round * me en-|twine; *|Riv- ers of|
w: There do * I|feel I|tru- * ly am|thine; *|Heav’n’s win- dows|
 [DF]4 [DF]2 | [_AB]4 [AB]>[AB] | e6 x | [Fd]3 [Fd] [Fd]2 | [Fd]2 [Ec]2 [DB]2 | [Ec]2 [DB]2 [CA]2 | %15
w: there in|se- cret with|Thee,|Heav- en comes|near- er and|near- er to|
w: love and|mer- cy there|flow,|Balm for all|sor- row that|mor- tal can|
w: o- pen,|Je- sus is|near,|Near to my|soul, and the|Fa- ther will|
 [DB]6 ||"^Refrain" [DB]3 [EB] [FB]2 | [GB]4 [EG]2 | [DF]2 [CF]2 [EF]2 | [DF]6 | %20
w: me.|||||
w: know.|Bless- ings at-|tend and|fol- low us|there;|
w: hear.|||||
 [EG]3 [B,F] [B,E]2 | [EB]2 [EA]2 [EG]2 | [DF] [DB]3 [EA]2 | [DB]6 |] %24
w: ||||
w: Heav- en comes|near- er and|near- er in|prayer.|
w: ||||
V:2
 x13/2 | x6 | x13/2 | x6 | x6 | x6 | =E4 x2 | x6 | x13/2 | x6 | x6 | (G4 _G2) x | x6 | x6 | x6 | %15
 x6 || x6 | x6 | x6 | x6 | x6 | x6 | x6 | x6 |] %24
V:3
 D4 C3/2 z/ B,/ | F,6 | G,3 [G,A,] B,3/2 z/ C/ | D6 | C4 (3:2:1[A,C] x4/3 | B,4 [B,D] x | %6
 C3 [A,C] [G,B,] x | C6 | D4 C3/2 z/ B,/ | F,4 F,2 | B,4 ([B,-D] z/) B,/ | E6 [_G,B,] | D3 D D2 | %13
 D2 C2 B,2 | C2 B,2 A,2 | [B,,F,B,]6 || [B,,F,]3 [C,F,] [D,B,]2 | [E,E]4 [E,B,]2 | %18
 [F,B,]2 [F,A,]2 [F,C]2 | [B,,B,]6 | [E,B,]3 [E,_A,] [E,G,]2 | [E,G,]2 [E,G,]2 [E,B,]2 | %22
 [F,B,] F,3 F,2 | [B,,F,]6 |] %24
V:4
 (B,,F,B,)F, A,F, x/ | (B,,F,B,F,B,F,) | B,, G, B, B, _G, x3/2 | (B,,F, B,F, B,F,) | %4
 G,,F, A,F, (3:2:2B,A, x2/3 | B,,F, B,F, B,, x | (C,G,CG,) x2 | (F,,F,A,F,A,G,) | %8
 (B,,F,B,F,) A,F, x/ | (B,,F,B,F,) (B,F,) | (B,,F,DC) B, x | _G, G, B, G, B, x2 | F,6- | F,6- | %14
 [F,,F,-]6 | x6 || x6 | x6 | x6 | x6 | x6 | x6 | x F,3 F,2 | x6 |] %24

